X:1
T:Cornell, CM
T:John Henry Cornell (1828-1894)
T:Cornell, CM
T:Public Domain
C:John Henry Cornell (1828-1894)
Z:Public Domain
%%score ( 1 2 ) ( 3 4 )
L:1/8
M:4/4
K:A
V:1 treble 
V:2 treble 
V:3 bass 
V:4 bass 
V:1
 E2 | [CA]3 [CA] [Ec]2 [EA]2 | [DF]3 [DA] [CE]2 [B,E]2 | [CA]2 [Ec]2 [FB]3 [FA] | %4
 ([FA]2 [EG]4) [EB]2 | [Ec]3 [DB] [CA]2 [FA]2 | [^EG]3 F F2 F2 | [EG]2 [EA]2 [DB]3 [Ec] | [CA]6 |] %9
V:2
 E2 | x8 | x8 | x8 | x8 | x8 | x3 F F2 F2 | x8 | x6 |] %9
V:3
 E,2 | [A,,E,]3 [A,,E,] [A,,A,]2 [C,A,]2 | D,2 z A, A,2 [G,B,]2 | [F,A,]2 [C,A,]2 [D,F,]3 [^D,B,] | %4
 [E,B,]6 [G,B,]2 | A,3 [E,G,] [F,A,]2 [F,C]2 | [C,B,]3 [D,A,] [D,A,]2 [D,A,]2 | %7
 [D,B,]2 (A,E,) [B,,F,]2 [E,G,]2 | [A,,A,]6 |] %9
V:4
 E,2 | x8 | A,3 (F,2 A,2) x | x8 | x8 | A,3 x5 | x8 | x2 C,2 x4 | x6 |] %9

